Avidclan_Website/assets/images/icons/community-support-ic.svg

<?xml version="1.0" encoding="utf-8"?>
<!-- Generator: Adobe Illustrator 24.1.1, SVG Export Plug-In . SVG Version: 6.00 Build 0)  -->
<svg version="1.1" id="Layer_1" xmlns="http://www.w3.org/2000/svg" xmlns:xlink="http://www.w3.org/1999/xlink" x="0px" y="0px"
	 viewBox="0 0 414 426.2" style="enable-background:new 0 0 414 426.2;" xml:space="preserve">
<style type="text/css">
	.st0{fill:#007AFB;}
</style>
<g>
	<path class="st0" d="M406.3,93.2c-3.7-3.7-8.7-5.7-14-5.6c-18.6,0.6-33.3,16.2-32.7,34.9l1,31.1l-5.3,21.2
		c-6.4,0-12.7,2.3-17.6,7.2l-34.6,34.6l-12,2.1c-7.7,1.3-15.1,5.1-20.6,10.7l-23.8,23.8c-7,7-11,16.3-11.2,26.2l-0.9,39.5
		c-11.1,3.7-19.2,14.1-19.3,26.4l-0.6,51.7c-0.1,7.5,2.8,14.6,8.1,20c5.3,5.4,12.3,8.4,19.8,8.5l85.7,0.9h0.3
		c7.4,0,14.4-2.9,19.7-8.1c5.4-5.3,8.4-12.3,8.5-19.8l0.6-51.7c0.1-7.5-2.8-14.6-8-20c-3-3-6.5-5.3-10.4-6.7l0.2-1.2
		c1.3-8.8,5.3-16.7,11.6-23l40.2-40.2c10.3-10.3,16.8-23.8,18.3-38.2l4.3-40.5c0.3-1.5,0.5-3,0.5-4.6l0-0.1c0-0.1,0-0.1,0-0.2
		c0-0.3,0-0.5,0-0.8l-2.1-65.3C411.7,101.2,409.7,96.6,406.3,93.2L406.3,93.2z M343.2,346.6l-0.6,51.7c0,3.7-1.5,7.2-4.2,9.8
		c-2.7,2.6-6.3,3.8-9.9,4l-85.7-0.9c-3.7,0-7.2-1.5-9.8-4.2c-2.6-2.7-4-6.2-4-9.9l0.6-51.7c0.1-7.6,6.3-13.8,13.9-13.8h0.2l85.7,0.9
		c3.7,0,7.2,1.5,9.8,4.2C341.8,339.4,343.2,342.9,343.2,346.6L343.2,346.6z M380.8,245.6l-40.2,40.2c-8.4,8.4-13.8,19.1-15.6,31
		l-0.2,1.5l-75.9-0.8l0.8-37.8c0.1-6.2,2.7-12.1,7.1-16.5l23.8-23.8c3.5-3.5,8.1-5.9,13-6.7l14.2-2.5c0.5-0.1,1-0.2,1.4-0.4
		c0,0,0.1,0,0.1,0c0.9-0.4,1.6-0.9,2.3-1.5c0,0,0,0,0,0l36.2-36.2c4.1-4.1,10.7-4.1,14.8,0c4.1,4.1,4.1,10.7,0,14.8L321,248.4
		c-2.8,2.8-2.8,7.3,0,10c1.4,1.4,3.2,2.1,5,2.1c1.8,0,3.6-0.7,5-2.1l41.5-41.5c9.6-9.6,9.6-25.2,0-34.8c-1.1-1.1-2.4-2.1-3.7-3
		l5.7-23c0-0.1,0-0.2,0-0.2c0.1-0.2,0.1-0.5,0.1-0.7s0-0.5,0-0.7c0-0.1,0-0.2,0-0.2l-1-32.1c-0.3-10.8,8.2-19.9,18.9-20.2
		c1.4,0,2.7,0.5,3.6,1.4c0.6,0.6,1.4,1.7,1.4,3.2l2.1,64.8l-0.5,4.6c0,0.2,0,0.3-0.1,0.5l-4.2,39.6
		C393.9,227.1,388.8,237.6,380.8,245.6L380.8,245.6z"/>
	<path class="st0" d="M338.3,353.1c0,6.7-5.4,12.2-12.2,12.2c-6.7,0-12.2-5.4-12.2-12.2c0-6.7,5.4-12.2,12.2-12.2
		C332.9,340.9,338.3,346.4,338.3,353.1"/>
	<path class="st0" d="M2.1,106L0,171.4c0,0.3,0,0.6,0,0.8v0.1l0,0c0,1.6,0.2,3.1,0.5,4.7l4.3,40.5c1.5,14.4,8,27.9,18.3,38.2
		l40.2,40.2c6.3,6.3,10.3,14.2,11.6,23L75,320c-3.9,1.4-7.4,3.7-10.4,6.7c-5.3,5.4-8.1,12.5-8,20l0.6,51.7
		c0.1,7.5,3.1,14.5,8.5,19.8c5.3,5.2,12.3,8.1,19.7,8.1h0.3l85.7-0.9c7.5-0.1,14.5-3.1,19.8-8.5c5.3-5.4,8.1-12.5,8.1-20l-0.6-51.7
		c-0.1-12.3-8.2-22.7-19.3-26.4l-0.9-39.5c-0.2-9.9-4.2-19.2-11.2-26.2l-23.8-23.8c-5.6-5.6-12.9-9.3-20.6-10.6l-12-2.1L76.2,182
		c-4.8-4.8-11.2-7.2-17.6-7.2l-5.3-21.3l1-31.1c0.6-18.6-14.1-34.2-32.8-34.8c-5.2-0.2-10.3,1.9-14,5.6C4.2,96.6,2.3,101.2,2.1,106
		L2.1,106z M184.4,345.4l0.6,51.7c0,3.7-1.4,7.2-4,9.9c-2.6,2.7-6.1,4.2-9.8,4.2L85.4,412c-3.7-0.1-7.2-1.4-9.9-4
		c-2.7-2.6-4.2-6.1-4.2-9.8l-0.6-51.7c0-3.7,1.4-7.2,4-9.9c2.6-2.7,6.1-4.2,9.8-4.2l85.7-0.9h0.1C178,331.6,184.3,337.7,184.4,345.4
		L184.4,345.4z M17.7,103.3c0.9-0.9,2.1-1.4,3.5-1.4c10.8,0.4,19.3,9.4,18.9,20.2l-1,32.1c0,0.1,0,0.2,0,0.2c0,0.2,0,0.5,0,0.7
		s0.1,0.5,0.1,0.7c0,0.1,0,0.2,0,0.2l5.7,23c-1.3,0.9-2.5,1.9-3.7,3c-9.6,9.6-9.6,25.2,0,34.8l41.5,41.5c1.4,1.4,3.2,2.1,5,2.1
		c1.8,0,3.6-0.7,5-2.1c2.8-2.8,2.8-7.3,0-10l-41.5-41.5c-4.1-4.1-4.1-10.7,0-14.8c4.1-4.1,10.7-4.1,14.8,0l36.2,36.2c0,0,0,0,0,0
		c0.6,0.6,1.4,1.1,2.3,1.5c0,0,0.1,0,0.1,0c0.5,0.2,0.9,0.3,1.4,0.4l14.2,2.5c4.9,0.8,9.5,3.2,12.9,6.7l23.8,23.8
		c4.4,4.4,6.9,10.3,7.1,16.5l0.8,37.8l-75.9,0.8l-0.2-1.5c-1.8-11.8-7.2-22.5-15.6-30.9l-40.2-40.2c-8-8-13-18.5-14.2-29.6
		l-4.2-39.6c0-0.2,0-0.3-0.1-0.5l-0.5-4.6l2.1-64.7C16.3,104.9,17.1,103.9,17.7,103.3L17.7,103.3z"/>
	<path class="st0" d="M99.9,353.1c0,6.7-5.4,12.2-12.2,12.2s-12.2-5.4-12.2-12.2c0-6.7,5.4-12.2,12.2-12.2S99.9,346.4,99.9,353.1"/>
	<path class="st0" d="M207,162.2c28.5,0,51.7-23.2,51.7-51.7S235.5,58.8,207,58.8s-51.7,23.2-51.7,51.7
		C155.3,139,178.5,162.2,207,162.2z M207,73c20.7,0,37.5,16.8,37.5,37.5c0,20.7-16.8,37.5-37.5,37.5c-20.7,0-37.5-16.8-37.5-37.5
		C169.5,89.9,186.3,73,207,73z"/>
	<path class="st0" d="M195.8,221.1h22.4c8.8,0,15.9-7.2,15.9-15.9v-15c10.3-3.5,19.9-9.1,28.2-16.3l13,7.5c2.5,1.4,5.2,2.1,8,2.1
		c1.4,0,2.8-0.2,4.2-0.6c4.1-1.1,7.6-3.7,9.7-7.4l11.2-19.4c4.4-7.6,1.8-17.4-5.8-21.8l-13-7.5c1-5.3,1.6-10.8,1.6-16.3
		c0-5.5-0.5-10.9-1.6-16.3l13-7.5c7.6-4.4,10.2-14.2,5.8-21.8l-11.2-19.4c-4.4-7.6-14.2-10.2-21.8-5.8l-13,7.5
		c-8.3-7.2-17.8-12.8-28.2-16.3l0-15C234.1,7.2,227,0,218.2,0h-22.4c-8.8,0-15.9,7.2-15.9,15.9v15c-10.3,3.5-19.9,9.1-28.2,16.3
		l-13-7.5c-7.6-4.4-17.4-1.8-21.8,5.8L105.6,65c-4.4,7.6-1.8,17.4,5.8,21.8l13,7.5c-1,5.3-1.6,10.8-1.6,16.3
		c0,5.5,0.5,10.9,1.6,16.3l-13,7.5c-7.6,4.4-10.2,14.2-5.8,21.8l11.2,19.4c2.1,3.7,5.6,6.3,9.7,7.4c1.4,0.4,2.8,0.6,4.2,0.6
		c2.8,0,5.5-0.7,7.9-2.1l13-7.5c8.3,7.2,17.8,12.8,28.2,16.3v15C179.8,213.9,187,221.1,195.8,221.1L195.8,221.1z M131.5,169
		c-0.8,0.5-1.9,0.2-2.4-0.6L117.9,149c-0.5-0.8-0.2-1.9,0.6-2.4l16-9.2c0.8-0.5,1.5-1,2.2-1.5c0,0,0,0,0.1-0.1
		c0.1-0.1,0.2-0.2,0.4-0.3c1.3-1.2,2.1-2.7,2.3-4.3c0,0,0-0.1,0-0.1c0.1-0.4,0.1-0.8,0.1-1.3c0-0.1,0-0.2,0-0.3
		c0-0.4-0.1-0.7-0.2-1.1c0,0,0,0,0,0c-1.5-5.8-2.3-11.8-2.3-17.8c0-6.1,0.8-12.1,2.3-17.9c0.2-0.8,0.3-1.7,0.2-2.5
		c-0.2-2-1.3-3.9-2.9-5.1c-0.7-0.5-1.4-1-2.1-1.4l-16-9.2c-0.8-0.5-1.1-1.5-0.6-2.4l11.2-19.4c0.5-0.8,1.6-1.1,2.4-0.6l16,9.2
		c0.8,0.4,1.6,0.8,2.3,1.2c0.2,0.1,0.3,0.1,0.5,0.2c0.7,0.3,1.5,0.4,2.2,0.4c0,0,0.1,0,0.1,0c0.1,0,0.1,0,0.2,0
		c0.8,0,1.7-0.2,2.4-0.5c0,0,0.1,0,0.1,0c0.8-0.3,1.6-0.9,2.3-1.5c8.6-8.6,19.3-14.7,30.9-17.9c0.2,0,0.3-0.1,0.5-0.2
		c0.1,0,0.3-0.1,0.4-0.1c0.7-0.3,1.3-0.7,1.9-1.1c0.1-0.1,0.2-0.1,0.2-0.2c0.6-0.5,1-1.1,1.4-1.8c0-0.1,0.1-0.2,0.1-0.2
		c0.4-0.7,0.6-1.5,0.7-2.3c0,0,0,0,0,0c0.1-0.9,0.2-1.8,0.2-2.7V15.9c0-1,0.8-1.7,1.7-1.7h22.4c1,0,1.7,0.8,1.7,1.7v18.4
		c0,0.9,0.1,1.8,0.2,2.7c0,0,0,0,0,0.1c0,0.3,0.1,0.6,0.2,0.9c0,0.2,0.1,0.3,0.1,0.5c0.1,0.2,0.2,0.4,0.2,0.5
		c0.1,0.2,0.2,0.5,0.3,0.7c0,0,0.1,0.1,0.1,0.1c0.2,0.4,0.4,0.7,0.7,1c0,0,0,0,0,0c0.3,0.3,0.6,0.6,0.9,0.9c0.1,0,0.1,0.1,0.2,0.1
		c0.3,0.2,0.6,0.4,1,0.6c0.1,0,0.1,0.1,0.2,0.1c0.4,0.2,0.7,0.3,1.1,0.4c0,0,0,0,0,0c11.6,3.1,22.3,9.3,30.9,17.9c0,0,0,0,0,0
		c0.7,0.6,1.4,1.2,2.3,1.5c0.1,0,0.1,0,0.2,0.1c0.8,0.3,1.6,0.5,2.4,0.5c0.1,0,0.1,0,0.2,0c0,0,0.1,0,0.1,0c0.7,0,1.5-0.2,2.2-0.4
		c0.2-0.1,0.3-0.1,0.5-0.2c0.8-0.3,1.6-0.7,2.3-1.2l16-9.2c0.8-0.5,1.9-0.2,2.4,0.6L296,72.1c0.5,0.8,0.2,1.9-0.6,2.4l-16,9.2
		c-0.7,0.4-1.4,0.8-2,1.3c-1.6,1.1-2.8,2.9-3,5c-0.1,1,0,2,0.3,3c1.5,5.7,2.2,11.6,2.2,17.6c0,6.1-0.8,12.1-2.3,17.8c0,0,0,0,0,0
		c-0.1,0.4-0.1,0.7-0.2,1.1c0,0.1,0,0.2,0,0.3c0,0.4,0,0.8,0.1,1.3c0,0,0,0.1,0,0.1c0.2,1.6,1,3.1,2.3,4.3c0.1,0.1,0.2,0.2,0.4,0.3
		c0,0,0,0,0.1,0.1c0.7,0.5,1.4,1,2.2,1.5l16,9.2c0.8,0.5,1.1,1.5,0.6,2.4l-11.2,19.4c-0.3,0.5-0.7,0.7-1.1,0.8s-0.8,0.1-1.3-0.2
		l-16-9.2c-0.8-0.5-1.6-0.9-2.4-1.2c0,0,0,0-0.1,0c0,0-0.1,0-0.1,0c-2.7-1.1-5.7-0.4-7.6,1.5c0,0,0,0,0,0
		c-8.6,8.6-19.3,14.7-30.9,17.8c0,0,0,0-0.1,0c-0.2,0.1-0.4,0.1-0.6,0.2c-2.1,0.8-3.6,2.4-4.3,4.4c0,0.1,0,0.2-0.1,0.3
		c-0.1,0.4-0.2,0.7-0.3,1.1c0,0,0,0,0,0c-0.1,0.9-0.2,1.8-0.2,2.7v18.4c0,1-0.8,1.7-1.7,1.7l-22.5,0c-1,0-1.7-0.8-1.7-1.7v-18.4
		c0-0.9-0.1-1.8-0.2-2.7c0,0,0,0,0-0.1c0-0.3-0.1-0.5-0.2-0.8c0-0.2-0.1-0.4-0.1-0.6c-0.1-0.2-0.1-0.3-0.2-0.5
		c-0.1-0.3-0.2-0.6-0.4-0.8c0,0,0-0.1-0.1-0.1c-0.2-0.4-0.5-0.7-0.7-1c0,0-0.1-0.1-0.1-0.1c-0.3-0.3-0.6-0.6-0.9-0.8
		c-0.1-0.1-0.2-0.1-0.3-0.2c-0.3-0.2-0.6-0.4-0.9-0.6c-0.1,0-0.2-0.1-0.3-0.1c-0.3-0.2-0.7-0.3-1.1-0.4c0,0,0,0,0,0
		c-11.6-3.1-22.3-9.3-30.9-17.8c0,0,0,0,0,0c-2-1.9-4.9-2.6-7.6-1.5c0,0-0.1,0-0.1,0c0,0,0,0-0.1,0c-0.8,0.3-1.6,0.7-2.4,1.2
		L131.5,169z"/>
</g>
</svg>

<svg width="414" height="427" viewBox="0 0 414 427" fill="none" xmlns="http://www.w3.org/2000/svg">
<g clip-path="url(#clip0_493_276)">
<path d="M406.3 93.2C402.6 89.5 397.6 87.5 392.3 87.6C373.7 88.2 359 103.8 359.6 122.5L360.6 153.6L355.3 174.8C348.9 174.8 342.6 177.1 337.7 182L303.1 216.6L291.1 218.7C283.4 220 276 223.8 270.5 229.4L246.7 253.2C239.7 260.2 235.7 269.5 235.5 279.4L234.6 318.9C223.5 322.6 215.4 333 215.3 345.3L214.7 397C214.6 404.5 217.5 411.6 222.8 417C228.1 422.4 235.1 425.4 242.6 425.5L328.3 426.4H328.6C336 426.4 343 423.5 348.3 418.3C353.7 413 356.7 406 356.8 398.5L357.4 346.8C357.5 339.3 354.6 332.2 349.4 326.8C346.4 323.8 342.9 321.5 339 320.1L339.2 318.9C340.5 310.1 344.5 302.2 350.8 295.9L391 255.7C401.3 245.4 407.8 231.9 409.3 217.5L413.6 177C413.9 175.5 414.1 174 414.1 172.4V172.3C414.1 172.2 414.1 172.2 414.1 172.1C414.1 171.8 414.1 171.6 414.1 171.3L412 106C411.7 101.2 409.7 96.6 406.3 93.2ZM343.2 346.6L342.6 398.3C342.6 402 341.1 405.5 338.4 408.1C335.7 410.7 332.1 411.9 328.5 412.1L242.8 411.2C239.1 411.2 235.6 409.7 233 407C230.4 404.3 229 400.8 229 397.1L229.6 345.4C229.7 337.8 235.9 331.6 243.5 331.6H243.7L329.4 332.5C333.1 332.5 336.6 334 339.2 336.7C341.8 339.4 343.2 342.9 343.2 346.6ZM380.8 245.6L340.6 285.8C332.2 294.2 326.8 304.9 325 316.8L324.8 318.3L248.9 317.5L249.7 279.7C249.8 273.5 252.4 267.6 256.8 263.2L280.6 239.4C284.1 235.9 288.7 233.5 293.6 232.7L307.8 230.2C308.3 230.1 308.8 230 309.2 229.8H309.3C310.2 229.4 310.9 228.9 311.6 228.3L347.8 192.1C351.9 188 358.5 188 362.6 192.1C366.7 196.2 366.7 202.8 362.6 206.9L321 248.4C318.2 251.2 318.2 255.7 321 258.4C322.4 259.8 324.2 260.5 326 260.5C327.8 260.5 329.6 259.8 331 258.4L372.5 216.9C382.1 207.3 382.1 191.7 372.5 182.1C371.4 181 370.1 180 368.8 179.1L374.5 156.1C374.5 156 374.5 155.9 374.5 155.9C374.6 155.7 374.6 155.4 374.6 155.2C374.6 155 374.6 154.7 374.6 154.5C374.6 154.4 374.6 154.3 374.6 154.3L373.6 122.2C373.3 111.4 381.8 102.3 392.5 102C393.9 102 395.2 102.5 396.1 103.4C396.7 104 397.5 105.1 397.5 106.6L399.6 171.4L399.1 176C399.1 176.2 399.1 176.3 399 176.5L394.8 216.1C393.9 227.1 388.8 237.6 380.8 245.6Z" fill="#0E53BE"/>
<path d="M338.3 353.1C338.3 359.8 332.9 365.3 326.1 365.3C319.4 365.3 313.9 359.9 313.9 353.1C313.9 346.4 319.3 340.9 326.1 340.9C332.9 340.9 338.3 346.4 338.3 353.1Z" fill="#0E53BE"/>
<path d="M2.1 106L0 171.4C0 171.7 0 172 0 172.2V172.3C0 173.9 0.2 175.4 0.5 177L4.8 217.5C6.3 231.9 12.8 245.4 23.1 255.7L63.3 295.9C69.6 302.2 73.6 310.1 74.9 318.9L75 320C71.1 321.4 67.6 323.7 64.6 326.7C59.3 332.1 56.5 339.2 56.6 346.7L57.2 398.4C57.3 405.9 60.3 412.9 65.7 418.2C71 423.4 78 426.3 85.4 426.3H85.7L171.4 425.4C178.9 425.3 185.9 422.3 191.2 416.9C196.5 411.5 199.3 404.4 199.3 396.9L198.7 345.2C198.6 332.9 190.5 322.5 179.4 318.8L178.5 279.3C178.3 269.4 174.3 260.1 167.3 253.1L143.5 229.3C137.9 223.7 130.6 220 122.9 218.7L110.9 216.6L76.2 182C71.4 177.2 65 174.8 58.6 174.8L53.3 153.5L54.3 122.4C54.9 103.8 40.2 88.2 21.5 87.6C16.3 87.4 11.2 89.5 7.5 93.2C4.2 96.6 2.3 101.2 2.1 106ZM184.4 345.4L185 397.1C185 400.8 183.6 404.3 181 407C178.4 409.7 174.9 411.2 171.2 411.2L85.4 412C81.7 411.9 78.2 410.6 75.5 408C72.8 405.4 71.3 401.9 71.3 398.2L70.7 346.5C70.7 342.8 72.1 339.3 74.7 336.6C77.3 333.9 80.8 332.4 84.5 332.4L170.2 331.5H170.3C178 331.6 184.3 337.7 184.4 345.4ZM17.7 103.3C18.6 102.4 19.8 101.9 21.2 101.9C32 102.3 40.5 111.3 40.1 122.1L39.1 154.2C39.1 154.3 39.1 154.4 39.1 154.4C39.1 154.6 39.1 154.9 39.1 155.1C39.1 155.3 39.2 155.6 39.2 155.8C39.2 155.9 39.2 156 39.2 156L44.9 179C43.6 179.9 42.4 180.9 41.2 182C31.6 191.6 31.6 207.2 41.2 216.8L82.7 258.3C84.1 259.7 85.9 260.4 87.7 260.4C89.5 260.4 91.3 259.7 92.7 258.3C95.5 255.5 95.5 251 92.7 248.3L51.2 206.8C47.1 202.7 47.1 196.1 51.2 192C55.3 187.9 61.9 187.9 66 192L102.2 228.2C102.8 228.8 103.6 229.3 104.5 229.7H104.6C105.1 229.9 105.5 230 106 230.1L120.2 232.6C125.1 233.4 129.7 235.8 133.1 239.3L156.9 263.1C161.3 267.5 163.8 273.4 164 279.6L164.8 317.4L88.9 318.2L88.7 316.7C86.9 304.9 81.5 294.2 73.1 285.8L32.9 245.6C24.9 237.6 19.9 227.1 18.7 216L14.5 176.4C14.5 176.2 14.5 176.1 14.4 175.9L13.9 171.3L16 106.6C16.3 104.9 17.1 103.9 17.7 103.3Z" fill="#0E53BE"/>
<path d="M99.9 353.1C99.9 359.8 94.5 365.3 87.7 365.3C80.9 365.3 75.5 359.9 75.5 353.1C75.5 346.4 80.9 340.9 87.7 340.9C94.5 340.9 99.9 346.4 99.9 353.1Z" fill="#0E53BE"/>
<path d="M207 162.2C235.5 162.2 258.7 139 258.7 110.5C258.7 82 235.5 58.8 207 58.8C178.5 58.8 155.3 82 155.3 110.5C155.3 139 178.5 162.2 207 162.2ZM207 73C227.7 73 244.5 89.8 244.5 110.5C244.5 131.2 227.7 148 207 148C186.3 148 169.5 131.2 169.5 110.5C169.5 89.9 186.3 73 207 73Z" fill="#0E53BE"/>
<path d="M195.8 221.1H218.2C227 221.1 234.1 213.9 234.1 205.2V190.2C244.4 186.7 254 181.1 262.3 173.9L275.3 181.4C277.8 182.8 280.5 183.5 283.3 183.5C284.7 183.5 286.1 183.3 287.5 182.9C291.6 181.8 295.1 179.2 297.2 175.5L308.4 156.1C312.8 148.5 310.2 138.7 302.6 134.3L289.6 126.8C290.6 121.5 291.2 116 291.2 110.5C291.2 105 290.7 99.6 289.6 94.2L302.6 86.7C310.2 82.3 312.8 72.5 308.4 64.9L297.2 45.5C292.8 37.9 283 35.3 275.4 39.7L262.4 47.2C254.1 40 244.6 34.4 234.2 30.9V15.9C234.1 7.2 227 0 218.2 0H195.8C187 0 179.9 7.2 179.9 15.9V30.9C169.6 34.4 160 40 151.7 47.2L138.7 39.7C131.1 35.3 121.3 37.9 116.9 45.5L105.6 65C101.2 72.6 103.8 82.4 111.4 86.8L124.4 94.3C123.4 99.6 122.8 105.1 122.8 110.6C122.8 116.1 123.3 121.5 124.4 126.9L111.4 134.4C103.8 138.8 101.2 148.6 105.6 156.2L116.8 175.6C118.9 179.3 122.4 181.9 126.5 183C127.9 183.4 129.3 183.6 130.7 183.6C133.5 183.6 136.2 182.9 138.6 181.5L151.6 174C159.9 181.2 169.4 186.8 179.8 190.3V205.3C179.8 213.9 187 221.1 195.8 221.1ZM131.5 169C130.7 169.5 129.6 169.2 129.1 168.4L117.9 149C117.4 148.2 117.7 147.1 118.5 146.6L134.5 137.4C135.3 136.9 136 136.4 136.7 135.9C136.7 135.9 136.7 135.9 136.8 135.8C136.9 135.7 137 135.6 137.2 135.5C138.5 134.3 139.3 132.8 139.5 131.2V131.1C139.6 130.7 139.6 130.3 139.6 129.8C139.6 129.7 139.6 129.6 139.6 129.5C139.6 129.1 139.5 128.8 139.4 128.4C137.9 122.6 137.1 116.6 137.1 110.6C137.1 104.5 137.9 98.5 139.4 92.7C139.6 91.9 139.7 91 139.6 90.2C139.4 88.2 138.3 86.3 136.7 85.1C136 84.6 135.3 84.1 134.6 83.7L118.6 74.5C117.8 74 117.5 73 118 72.1L129.2 52.7C129.7 51.9 130.8 51.6 131.6 52.1L147.6 61.3C148.4 61.7 149.2 62.1 149.9 62.5C150.1 62.6 150.2 62.6 150.4 62.7C151.1 63 151.9 63.1 152.6 63.1H152.7C152.8 63.1 152.8 63.1 152.9 63.1C153.7 63.1 154.6 62.9 155.3 62.6H155.4C156.2 62.3 157 61.7 157.7 61.1C166.3 52.5 177 46.4 188.6 43.2C188.8 43.2 188.9 43.1 189.1 43C189.2 43 189.4 42.9 189.5 42.9C190.2 42.6 190.8 42.2 191.4 41.8C191.5 41.7 191.6 41.7 191.6 41.6C192.2 41.1 192.6 40.5 193 39.8C193 39.7 193.1 39.6 193.1 39.6C193.5 38.9 193.7 38.1 193.8 37.3C193.9 36.4 194 35.5 194 34.6V15.9C194 14.9 194.8 14.2 195.7 14.2H218.1C219.1 14.2 219.8 15 219.8 15.9V34.3C219.8 35.2 219.9 36.1 220 37C220 37 220 37 220 37.1C220 37.4 220.1 37.7 220.2 38C220.2 38.2 220.3 38.3 220.3 38.5C220.4 38.7 220.5 38.9 220.5 39C220.6 39.2 220.7 39.5 220.8 39.7L220.9 39.8C221.1 40.2 221.3 40.5 221.6 40.8C221.9 41.1 222.2 41.4 222.5 41.7C222.6 41.7 222.6 41.8 222.7 41.8C223 42 223.3 42.2 223.7 42.4C223.8 42.4 223.8 42.5 223.9 42.5C224.3 42.7 224.6 42.8 225 42.9C236.6 46 247.3 52.2 255.9 60.8C256.6 61.4 257.3 62 258.2 62.3C258.3 62.3 258.3 62.3 258.4 62.4C259.2 62.7 260 62.9 260.8 62.9C260.9 62.9 260.9 62.9 261 62.9H261.1C261.8 62.9 262.6 62.7 263.3 62.5C263.5 62.4 263.6 62.4 263.8 62.3C264.6 62 265.4 61.6 266.1 61.1L282.1 51.9C282.9 51.4 284 51.7 284.5 52.5L296 72.1C296.5 72.9 296.2 74 295.4 74.5L279.4 83.7C278.7 84.1 278 84.5 277.4 85C275.8 86.1 274.6 87.9 274.4 90C274.3 91 274.4 92 274.7 93C276.2 98.7 276.9 104.6 276.9 110.6C276.9 116.7 276.1 122.7 274.6 128.4C274.5 128.8 274.5 129.1 274.4 129.5C274.4 129.6 274.4 129.7 274.4 129.8C274.4 130.2 274.4 130.6 274.5 131.1V131.2C274.7 132.8 275.5 134.3 276.8 135.5C276.9 135.6 277 135.7 277.2 135.8C277.2 135.8 277.2 135.8 277.3 135.9C278 136.4 278.7 136.9 279.5 137.4L295.5 146.6C296.3 147.1 296.6 148.1 296.1 149L284.9 168.4C284.6 168.9 284.2 169.1 283.8 169.2C283.4 169.3 283 169.3 282.5 169L266.5 159.8C265.7 159.3 264.9 158.9 264.1 158.6C264.1 158.6 264.1 158.6 264 158.6H263.9C261.2 157.5 258.2 158.2 256.3 160.1C247.7 168.7 237 174.8 225.4 177.9C225.4 177.9 225.4 177.9 225.3 177.9C225.1 178 224.9 178 224.7 178.1C222.6 178.9 221.1 180.5 220.4 182.5C220.4 182.6 220.4 182.7 220.3 182.8C220.2 183.2 220.1 183.5 220 183.9C219.9 184.8 219.8 185.7 219.8 186.6V205C219.8 206 219 206.7 218.1 206.7H195.6C194.6 206.7 193.9 205.9 193.9 205V186.6C193.9 185.7 193.8 184.8 193.7 183.9C193.7 183.9 193.7 183.9 193.7 183.8C193.7 183.5 193.6 183.3 193.5 183C193.5 182.8 193.4 182.6 193.4 182.4C193.3 182.2 193.3 182.1 193.2 181.9C193.1 181.6 193 181.3 192.8 181.1C192.8 181.1 192.8 181 192.7 181C192.5 180.6 192.2 180.3 192 180L191.9 179.9C191.6 179.6 191.3 179.3 191 179.1C190.9 179 190.8 179 190.7 178.9C190.4 178.7 190.1 178.5 189.8 178.3C189.7 178.3 189.6 178.2 189.5 178.2C189.2 178 188.8 177.9 188.4 177.8C176.8 174.7 166.1 168.5 157.5 160C155.5 158.1 152.6 157.4 149.9 158.5H149.8C149.8 158.5 149.8 158.5 149.7 158.5C148.9 158.8 148.1 159.2 147.3 159.7L131.5 169Z" fill="#0E53BE"/>
</g>
<defs>
<clipPath id="clip0_493_276">
<rect width="414" height="426.2" fill="white"/>
</clipPath>
</defs>
</svg>
